X:131
T: Humours of Last Night
N: O'Farrell's Pocket Companion v.2 (Sky ed. p.71)
N: "Irish"
N: parts 1,3,4 = Merrily Kiss the Quaker
M: 6/8
L: 1/8
Q: 320
R: jig
K: G
D/E/|GAB D2E|c2A BGE|GAB D2E |A3 AGE|
GAB D2E|c2A BGE|GAB D2E|G3 G2 :|
P:2
z|BcB Bcd|edc BAG|BcB Bcd|e3 g3|
BcB Bcd|ege dBG|GAB D2E|G3 G2 :|
P:3
c|BGG AGG|BGG AGE|GAB D2E |A3 A2c|
BGG AGG|BGG AGE|GAB D2E |G3 G2 :|
P:4
z|g3 aga|bge dcB|g3 gab|a3 age|
gbg faf|ege dBG|GAB D2E|G3 G2 :|
